X: 48
T: Chaval Al Hazman
C: Tzion Sharabi 1997
O: Israel
F: http://www.youtube.com/watch?v=JhH0m-Nidl8
M: 2/4
L: 1/8
Q: 1/4=210
K: DPhr
|:ABAG   |^Fz3  |GAG^F|Ez3   |\
  ^FGFE  |[1D2D2|G2A2 |G2^F2 :|
  [2D2D2 |dzdz  |D4   |\
  D2D2   |B4    |A2G2 |G4    |\
  A2B2   |c4    |B2A2 |A4    |
  B2c2   |d2d2  |dede |c2c2  |\
  cdcd   |B2B2  |cBAG |A4    |\
  dcBA   |G4    |z4   |
|:D2D2   |G2G2  |G2G2 |^F4   |\
  [1 D2D2|E2E2  |C2C2 |D4    :|\
  [2 z2D2|E4    |^F4  |D4    |
  G2A2   |B2G2  |B2G2 |B2z2  |\
  z2B2   |A2G2  |^F2G2|A2z2  |
  ^F2G2  |A2^F2 |A2^F2|A2z2  |\
  z2A2   |B4    |G2^F2|G4-   |G2z2|
|:z2D2   |B4    |A2G2 |G2z2  |\
  z2D2   |D2^F2 |A2G2 |z4    :|
  A2B2   |c2z2  |B2A2 |B2G2  |\
  A2B2   |c2z2  |B2A2 |B2G2  |
  G2^F2  |A4-   |A4   |A2G2  |\
  ^F4-   |^F4   |^F2E2|E4-   |
  E4-    |E4    |c2d2 |c2B2  |\
  B2G2-  |G4    |



